brandFactory_export/3.Masa/Podium _3Masa.svg

<?xml version="1.0" encoding="UTF-8"?>
<svg width="24px" height="24px" viewBox="0 0 24 24" version="1.1" xmlns="http://www.w3.org/2000/svg" xmlns:xlink="http://www.w3.org/1999/xlink">
    <title>3.Masa/Podium _3Masa</title>
    <g id="Symbols" stroke="none" stroke-width="1" fill="none" fill-rule="evenodd">
        <g id="3.Masa/Podium-_3Masa" fill="#5CB615" fill-rule="nonzero">
            <path d="M22.3361345,16.8504202 C23.0823529,16.8504202 23.6235294,17.2537815 23.6235294,17.8084034 L23.6235294,22.6352941 C23.6235294,23.2 23.092437,23.6201681 22.3327731,23.6201681 L17.7109244,23.6201681 L17.7109244,16.8504202 L22.3361345,16.8504202 Z M0,15.0756303 C0,14.410084 0.668907563,13.9966387 1.28739496,13.9966387 L5.9092437,13.9966387 L5.9092437,23.6201681 L1.28739496,23.6201681 C0.578151261,23.6201681 0,23.112605 0,22.5176471 L0,15.0756303 Z M14.9546218,10.3563025 C15.6403361,10.3563025 16.2420168,10.9310924 16.2420168,11.589916 L16.2420168,23.6268908 L7.38487395,23.6268908 L7.38487395,11.5932773 C7.38487395,10.9378151 7.98655462,10.3630252 8.67226891,10.3630252 L14.9546218,10.3630252 L14.9546218,10.3563025 Z M10.487395,3.33109244 L9.05210084,3.54957983 L10.1176471,4.73277311 C10.2823529,4.90084034 10.3663866,5.1697479 10.3260504,5.40168067 L10.0739496,6.94117647 L11.4285714,6.27226891 C11.5394958,6.21176471 11.6638655,6.18151261 11.7882353,6.18151261 C11.9226891,6.18151261 12.0605042,6.21848739 12.1747899,6.28907563 L13.4756303,7.00168067 L13.4789916,7.00504202 C13.4789916,7.00504202 13.4823529,7.00504202 13.4857143,7.00168067 L13.2504202,5.40168067 C13.210084,5.15966387 13.3042017,4.88403361 13.4823529,4.71260504 L14.5344538,3.64369748 L13.0420168,3.32436975 C12.8033613,3.2907563 12.5848739,3.12605042 12.4773109,2.91092437 L11.8084034,1.49579832 L11.1058824,2.89747899 C10.994958,3.13613445 10.7495798,3.31092437 10.487395,3.33109244 L10.487395,3.33109244 Z M8.81680672,5.51260504 L7.99663866,4.6789916 C7.58991597,4.26218487 7.45210084,3.66386555 7.64033613,3.1092437 C7.81848739,2.56806723 8.2789916,2.17815126 8.83361345,2.09411765 L9.9394958,1.92605042 L10.4403361,0.867226891 C10.692437,0.336134454 11.210084,0.00336134454 11.7915966,0.00336134454 C12.3697479,0.00336134454 12.887395,0.332773109 13.1394958,0.867226891 L13.6436975,1.92941176 L14.7495798,2.09411765 C15.307563,2.17815126 15.7680672,2.57142857 15.9495798,3.11260504 C16.1310924,3.67058824 15.9932773,4.26890756 15.5865546,4.68235294 L14.7663866,5.51932773 L14.9613445,6.7092437 C15.0319328,7.14621849 14.9176471,7.57310924 14.6588235,7.90252101 C14.5680672,8.02016807 14.4638655,8.1210084 14.3394958,8.21176471 C13.8823529,8.53781513 13.2638655,8.57142857 12.7731092,8.30252101 L12.0436975,7.90252101 L11.7915966,7.76470588 L11.5394958,7.90252101 L10.8134454,8.30252101 C10.5915966,8.42689076 10.3462185,8.48403361 10.1042017,8.48403361 C9.80504202,8.48403361 9.50588235,8.39327731 9.24705882,8.21176471 C9.12268908,8.12436975 9.01512605,8.02016807 8.92773109,7.90252101 C8.67226891,7.5697479 8.55462185,7.14285714 8.62857143,6.7092437 L8.81680672,5.51260504 Z" id="Podium-_3Masa"></path>
        </g>
    </g>
</svg>

<svg width="24" height="24" viewBox="0 0 24 24" xmlns="http://www.w3.org/2000/svg"><path d="M22.336 16.85c.746 0 1.288.404 1.288.958v4.827c0 .565-.532.985-1.291.985H17.71v-6.77h4.625zM0 15.076c0-.666.669-1.08 1.287-1.08H5.91v9.624H1.287C.578 23.62 0 23.113 0 22.518v-7.442zm14.955-4.72c.685 0 1.287.575 1.287 1.234v12.037H7.385V11.593c0-.655.602-1.23 1.287-1.23h6.283v-.007zm-4.468-7.025l-1.435.219 1.066 1.183a.802.802 0 01.208.669l-.252 1.54 1.355-.67a.752.752 0 01.746.017l1.3.713.004.003s.003 0 .007-.003l-.236-1.6a.81.81 0 01.232-.69l1.052-1.068-1.492-.32a.771.771 0 01-.565-.413l-.669-1.415-.702 1.401a.766.766 0 01-.619.434zm-1.67 2.182l-.82-.834a1.529 1.529 0 01-.357-1.57 1.493 1.493 0 011.194-1.015l1.105-.168.501-1.059a1.49 1.49 0 011.352-.864c.578 0 1.095.33 1.347.864l.505 1.062 1.106.165a1.506 1.506 0 011.2 1.019 1.542 1.542 0 01-.363 1.57l-.82.836.194 1.19a1.55 1.55 0 01-.622 1.503 1.489 1.489 0 01-1.566.09l-.73-.4-.251-.137-.253.138-.726.4a1.49 1.49 0 01-1.886-.4 1.53 1.53 0 01-.298-1.194l.188-1.196z" fill="#5CB615" fill-rule="nonzero"/></svg>
